X: 2
T: The Foxhunter's
R: slip jig
M: 9/8
L: 1/8
K: Dmaj
BcB BGB ~c2A|BcB BGB A2G|BcB BGB cde|dBG GAB ~A2G:||:efe edc Bcd|~e2A A2B cBA|def gfe def|~g2G GAB ~A2G:|


Tune 482	Setting 2502

